symbols/web/quiz/materialsymbolsrounded/quiz_wght500grad200fill1_24px.svg

<svg xmlns="http://www.w3.org/2000/svg" height="24" width="24"><path d="M14.35 11.75q.325 0 .613-.25.287-.25.387-.675.075-.25.238-.488.162-.237.437-.562.825-.825 1.088-1.3.262-.475.262-1.15 0-1.2-.85-1.95t-2.225-.75q-.875 0-1.612.412-.738.413-1.138 1.113-.175.3-.025.662.15.363.525.513.3.125.625 0t.6-.45q.2-.25.463-.4.262-.15.562-.15.575 0 .9.312.325.313.325.813 0 .375-.2.687-.2.313-.65.713-.725.65-.95 1-.225.35-.275.975-.05.375.225.65t.675.275Zm0 3.35q.5 0 .863-.35.362-.35.362-.875 0-.5-.362-.863-.363-.362-.863-.362t-.862.362q-.363.363-.363.863 0 .525.363.875.362.35.862.35ZM8.4 18.7q-1.175 0-2-.825t-.825-2V3.85q0-1.175.825-2t2-.825h12.025q1.175 0 2 .825t.825 2v12.025q0 1.175-.825 2t-2 .825Zm-4.825 4.825q-1.175 0-2-.825t-.825-2V7.25q0-.575.413-.988.412-.412.987-.412.6 0 1.013.412.412.413.412.988V20.7h13.45q.575 0 .988.412.412.413.412 1.013 0 .575-.412.987-.413.413-.988.413Z"/></svg>

<svg xmlns="http://www.w3.org/2000/svg" height="24" width="24"><path d="M14.35 11.75Q14.675 11.75 14.963 11.5Q15.25 11.25 15.35 10.825Q15.425 10.575 15.588 10.337Q15.75 10.1 16.025 9.775Q16.85 8.95 17.113 8.475Q17.375 8 17.375 7.325Q17.375 6.125 16.525 5.375Q15.675 4.625 14.3 4.625Q13.425 4.625 12.688 5.037Q11.95 5.45 11.55 6.15Q11.375 6.45 11.525 6.812Q11.675 7.175 12.05 7.325Q12.35 7.45 12.675 7.325Q13 7.2 13.275 6.875Q13.475 6.625 13.738 6.475Q14 6.325 14.3 6.325Q14.875 6.325 15.2 6.637Q15.525 6.95 15.525 7.45Q15.525 7.825 15.325 8.137Q15.125 8.45 14.675 8.85Q13.95 9.5 13.725 9.85Q13.5 10.2 13.45 10.825Q13.4 11.2 13.675 11.475Q13.95 11.75 14.35 11.75ZM14.35 15.1Q14.85 15.1 15.213 14.75Q15.575 14.4 15.575 13.875Q15.575 13.375 15.213 13.012Q14.85 12.65 14.35 12.65Q13.85 12.65 13.488 13.012Q13.125 13.375 13.125 13.875Q13.125 14.4 13.488 14.75Q13.85 15.1 14.35 15.1ZM8.4 18.7Q7.225 18.7 6.4 17.875Q5.575 17.05 5.575 15.875V3.85Q5.575 2.675 6.4 1.85Q7.225 1.025 8.4 1.025H20.425Q21.6 1.025 22.425 1.85Q23.25 2.675 23.25 3.85V15.875Q23.25 17.05 22.425 17.875Q21.6 18.7 20.425 18.7ZM3.575 23.525Q2.4 23.525 1.575 22.7Q0.75 21.875 0.75 20.7V7.25Q0.75 6.675 1.163 6.262Q1.575 5.85 2.15 5.85Q2.75 5.85 3.163 6.262Q3.575 6.675 3.575 7.25V20.7Q3.575 20.7 3.575 20.7Q3.575 20.7 3.575 20.7H17.025Q17.6 20.7 18.013 21.112Q18.425 21.525 18.425 22.125Q18.425 22.7 18.013 23.112Q17.6 23.525 17.025 23.525Z"/></svg>
